X: 11
T: Sandy Laddy
%%VWML:Wrights-3753-p6-0
F: http://www.vwml.org/record/Wrights/3753/p6
%R: march
B: Daniel Wright "Wright's Compleat Collection of Celebrated Country Dances" 1740 p.6
S: http://library.efdss.org/cgi-bin/dancebooks.cgi
Z: 2014 John Chambers <jc:trillian.mit.edu>
M: C|
L: 1/8
K: C
%-------------------------
d2 |\
B2AG G2A2 | c6 e2 | d4 B4 | c2 A4 dc |\
B2AG G2A2 | c4 c2ef | g4 f4 | e2 c4 |] ef |\
g4 f4 | e2c2 c2e2 | d4 B4 | c2 A4 dc |\ B2AG G2A2 | c3d e2c2 | g4 f4 | e2 c4 |] %------------------------- %%begintext align
%% The first Man set to the 2d Wo. %% turn single .| the first Wo. & 2d man %% do the same :| hands round all four %% and turn single Back to Back and %% right hand and left .| half round :|: %%endtext %------------------------- %%sep 2 4 300
T: Red Joak
T: Longways for as many as will.
%R: reel
B: Daniel Wright "Wright's Compleat Collection of Celebrated Country Dances" 1740 p.6
S: http://library.efdss.org/cgi-bin/dancebooks.cgi
Z: 2014 John Chambers <jc:trillian.mit.edu>
M: C|
L: 1/8
K: G
%-------------------------
g/f/ |\
g3a g2B2 | (dB)(de) d2ba | g3a g2A2 | A6 ba | g3a g2B2 | (dB)(de) d2ba |
g2e2 d2B2 | G4 G2 |] d2 | d2G2 (Bc)(dB) | d2G2 g3e | d2G2 (Bc)(dB) | A4 A2e2 | d2G2 (Bc)(dB) | d2G2 g3a | (ba)(ge) (ge)(dB) | G4 G2 |] D2 | (GA)(BG) (Bc)(dB) | (GA)(BG) (Bc)(de) | d2B2 A2G2 | A4 A2D2 | (GA)(BG) (Bc)(dB) | (GA)(BG) (Bc)(de) | d2B2 (dB)(AG) | G4 G2 |] %-------------------------
%%begintext align
%% The 1st & 2d Cu. go Arms quite round & the 1st Cu. cast off
%% the 1st Cu. being in the 2d Cu. Place, lead down, & the 2d up.
%% then the 1st Cu. lead thro' the 2d Cu. & cast off into the 2d Cu. Place .|
%% 2d Cu. go right & left with the 1st Cu. half round, which brings the 1st
%% Cu. in their own Places: 1st Man change Places with the 2d Wo. the
%% 1st Wo. with the 2d Man. then 1st Cu. being in 2d Cu. Place, slip up and
%% down & up again, and cast off and turn, the 2d Cu. change Places
%% at the same Time, and so to the End.
%%endtext
%-------------------------
%%sep 2 4 300
